X: 1
T: Waiting For The Federals
R: Barndance
M: 4/4
L: 1/8
K: G
|: GA |B4 B2 AB | d2 B2 BA G2 | B4 d3 B | ABAG E2 D2 |
B4 B2 AB | d2 B2 BA G2 | ABAG E2 F2 | G3  A G2 :|
|: Bd |g4 gage | d2 B2 BA G2 | g4 gfga | be- ef e3 f |
gaba g3 e | dged BA G2 | ABAG E2 F2 | G3 A G2 :|